X:4806
T:Old Molly Oxford (Step Back)
O:england
M:2/2
C:
S:Bacon (MDT)
N:
A:Field Town
R:Reel
%P:A(A$^2$B$^2$)$^2$A$^2$
P:A(A2B2)2A2
K:D
Q:1/2=104
L:1/8
P:A
d2 cd    e2 f2 | e2 dc Bc d2 | c2 A2    B2 G2 | A2 AG FG A2 |\
d2 (3edc B2 AG | F2 A2 d4    | F2 (3FED E2 C2 | D4    D4    ||\
P:B
AGFE     D2 EF | G2 A2 B2 c2 | dcBA     G2 A2 | Bcdf  e2 ce |\
d2 Bd    c2 A2 | BGEF  G2 B2 | AGFE     D2 EF | G4    G4    ||


